X: 7
T: Speed The Plough
R: reel
M: 4/4
L: 1/8
K: Gmaj
|:GABc dedB|dedB dedB|c2ec B2dB|c2A2A2BA||GABc dedB|dedB dedB|c2ec B2dB|A2A2G4:||:g2gf g2Bd|g2f2e2d2|c2ec B2dB|c2A2A2df||g2gfg2Bd|g2f2e2d2|c2ec B2dB|A2A2G4:|


Tune 1191	Setting 26446

